X:34
T:Tarantella
C:Die Irrlichter
% key F
L:1/8
Q:1/4=180
M:6/8
K:Cmaj
[|: z(ed) cdc Bc.B | .A.E.A BAB | cBc dcd| !trill(!e3 !trill)!a (Ped)|
.c.d.c .B.c.B | .A.E.A BAB | .c2 c dcB | TA3 :|
(GAB) | .c2 c GA!tenuto!B | .c2 c !>!edc | .B2 B .E2 E | .A2 A
(GAB) | .c2 c GA!tenuto!B | .c2 c !>!edc | .B2 B .E2 E | .A2 A
.A2 z P.f2 f | .e2 e de!tenuto!d | .c2 c !>!edc | .B2 B .E2 E | .A2 A
.f2 f | .e2 e de!tenuto!d | .c2 c !>!edc | .B2 B .E2 E | A6 | 

